Papirus/22x22/actions/im-user-busy.svg

<?xml version="1.0" encoding="UTF-8" standalone="no"?>
<svg
   xmlns:dc="http://purl.org/dc/elements/1.1/"
   xmlns:cc="http://creativecommons.org/ns#"
   xmlns:rdf="http://www.w3.org/1999/02/22-rdf-syntax-ns#"
   xmlns:svg="http://www.w3.org/2000/svg"
   xmlns="http://www.w3.org/2000/svg"
   viewBox="0 0 22 22"
   id="svg2"
   version="1.1">
  <metadata
     id="metadata20">
    <rdf:RDF>
      <cc:Work
         rdf:about="">
        <dc:format>image/svg+xml</dc:format>
        <dc:type
           rdf:resource="http://purl.org/dc/dcmitype/StillImage" />
        <dc:title></dc:title>
      </cc:Work>
    </rdf:RDF>
  </metadata>
  <defs
     id="defs18" />
  <path
     id="path4137"
     d="M 11 3 A 3.99999 4.00003 0 0 0 7 7 A 3.99999 4.00003 0 0 0 11 11 A 3.99999 4.00003 0 0 0 15 7 A 3.99999 4.00003 0 0 0 11 3 z M 11 11.988281 C 6.9720212 11.993081 3.5035081 15.003572 3 19 L 12.712891 19 C 11.678574 18.173381 11 16.917879 11 15.5 C 11 14.096525 11.66527 12.840801 12.681641 12.013672 C 11.943079 11.999137 11.187296 11.989685 11 11.988281 z "
     style="fill:#000000;fill-opacity:1;opacity:0.5" />
  <path
     style="fill:#000000;fill-opacity:1;opacity:0.5"
     d="M 15.5 12 A 3.5 3.5 0 0 0 12 15.5 A 3.5 3.5 0 0 0 15.5 19 A 3.5 3.5 0 0 0 19 15.5 A 3.5 3.5 0 0 0 15.5 12 z M 15 13 L 16 13 L 16 15 L 18 15 L 18 16 L 15 16 L 15 15 L 15 13 z "
     id="path4267" />
</svg>

<?xml version="1.0" encoding="UTF-8" standalone="no"?>
<svg id="svg2" xmlns:rdf="http://www.w3.org/1999/02/22-rdf-syntax-ns#" xmlns="http://www.w3.org/2000/svg" version="1.1" xmlns:cc="http://creativecommons.org/ns#" viewBox="0 0 22 22" xmlns:dc="http://purl.org/dc/elements/1.1/">
 <metadata id="metadata20">
  <rdf:RDF>
   <cc:Work rdf:about="">
    <dc:format>image/svg+xml</dc:format>
    <dc:type rdf:resource="http://purl.org/dc/dcmitype/StillImage"/>
    <dc:title/>
   </cc:Work>
  </rdf:RDF>
 </metadata>
 <path id="path4137" opacity=".5" d="m11 3a4 4 0 0 0 -4 4 4 4 0 0 0 4 4 4 4 0 0 0 4 -4 4 4 0 0 0 -4 -4zm0 8.988c-4.028 0.005-7.4965 3.016-8 7.012h9.713c-1.034-0.827-1.713-2.082-1.713-3.5 0-1.403 0.665-2.659 1.682-3.486-0.739-0.015-1.495-0.024-1.682-0.026z"/>
 <path id="path4267" opacity=".5" d="m15.5 12a3.5 3.5 0 0 0 -3.5 3.5 3.5 3.5 0 0 0 3.5 3.5 3.5 3.5 0 0 0 3.5 -3.5 3.5 3.5 0 0 0 -3.5 -3.5zm-0.5 1h1v2h2v1h-3v-1-2z"/>
</svg>
